assets/Japanese post office/Flat/japanese_post_office_flat.svg

<svg xmlns="http://www.w3.org/2000/svg" width="32" height="32" fill="none"><path fill="#9B9B9B" d="M3 11.01h26v19H19l-2.997-1.209-2.997 1.209H9.002l-1.01-.603-1.01.603H3v-19Z"/><path fill="#F8312F" d="M2 11.01c0-.55.45-1 1-1h26c.55 0 1 .45 1 1s-.45 1-1 1H3c-.55 0-1-.45-1-1Z"/><path fill="#D3D3D3" d="M24 30.01h-4.985l-3.008-.73-3.008.73H8.874L8 24.008V4.21c0-1.21.98-2.2 2.2-2.2h11.6c1.21 0 2.2.98 2.2 2.2v25.8Z"/><path fill="#1C1C1C" d="M13 30.01h6.01v-4.62c0-.76-.62-1.38-1.38-1.38h-3.26c-.76 0-1.37.61-1.37 1.37v4.63ZM6.5 24.72h3L9 27.365v2.645H7v-2.645l-.5-2.645Z"/><path fill="#83CBFF" d="M11.5 18.01h3.01c.27 0 .49-.22.5-.5V15.5c0-.28-.23-.5-.5-.5H11.5c-.28 0-.5.23-.5.5v2.01c0 .28.23.5.5.5ZM21 15.5v2.01c0 .28-.22.5-.5.5h-3.01c-.28 0-.5-.23-.5-.5V15.5c0-.28.23-.5.5-.5h3.01c.28 0 .5.23.5.5ZM15 19.5v2.01c0 .28-.22.5-.5.5h-3.01c-.28 0-.5-.23-.5-.5V19.5c0-.28.23-.5.5-.5h3.01c.28 0 .5.23.5.5ZM21 19.5v2.01c0 .28-.22.5-.5.5h-3.01c-.28 0-.5-.23-.5-.5V19.5c0-.28.23-.5.5-.5h3.01c.28 0 .5.23.5.5ZM6.39 21.01H4.61c-.34 0-.61-.27-.61-.61v-4.78c0-.34.27-.61.61-.61h1.78c.34 0 .61.27.61.61v4.78c0 .34-.27.61-.61.61ZM27.39 21.01h-1.78c-.34 0-.61-.27-.61-.61v-4.78c0-.34.27-.61.61-.61h1.78c.34 0 .61.27.61.61v4.78c0 .34-.27.61-.61.61Z"/><path fill="#F8312F" d="M8 2c-.55 0-1 .45-1 1 0 .56.45 1 1 1h16c.55 0 1-.45 1-1s-.45-1-1-1H8ZM19.54 8.01h-7.08c-.25 0-.46-.2-.46-.46V6.46c0-.25.2-.46.46-.46h7.09c.25 0 .46.2.46.46v1.08c-.01.26-.21.47-.47.47ZM20 9.47c0-.25-.2-.46-.46-.46h-7.08c-.25 0-.46.2-.46.46v1.08c0 .25.2.46.46.46h2.08c.25 0 .46.2.46.46v1.08c0 .25.2.46.46.46h1.08c.25 0 .46-.2.46-.46v-1.09c0-.25.2-.46.46-.46h2.08c.25 0 .46-.2.46-.46V9.47Z"/><path fill="#F8312F" fill-rule="evenodd" d="M6.9 28.01h2.21c.49 0 .89-.4.9-.9V24.9c0-.5-.41-.9-.9-.9H6.9c-.5 0-.9.41-.9.9v2.21c0 .5.41.9.9.9Zm.6-2h1c.28 0 .5-.23.5-.5 0-.28-.22-.5-.5-.5h-1c-.28 0-.5.22-.5.5s.22.5.5.5Z" clip-rule="evenodd"/></svg>

<svg width="32" height="32" viewBox="0 0 32 32" fill="none" xmlns="http://www.w3.org/2000/svg">
<path d="M3 11.01H29V30.01H18.9997L16.0029 28.8014L13.0064 30.01H9.00194L7.99171 29.4067L6.98147 30.01H3V11.01Z" fill="#9B9B9B"/>
<path d="M2 11.01C2 10.46 2.45 10.01 3 10.01H29C29.55 10.01 30 10.46 30 11.01C30 11.56 29.55 12.01 29 12.01H3C2.45 12.01 2 11.56 2 11.01Z" fill="#F8312F"/>
<path d="M24 30.01H19.0147L16.0068 29.2797L12.9989 30.01H8.87365L8 24.0081V4.21001C8 3.00001 8.98 2.01001 10.2 2.01001H21.8C23.01 2.01001 24 2.99001 24 4.21001V30.01Z" fill="#D3D3D3"/>
<path d="M13 30.01H19.01V25.39C19.01 24.63 18.39 24.01 17.63 24.01H14.37C13.61 24.01 13 24.62 13 25.38V30.01Z" fill="#1C1C1C"/>
<path d="M6.5 24.72H9.5L9 27.365V30.01H7V27.365L6.5 24.72Z" fill="#1C1C1C"/>
<path d="M11.5 18.01H14.51C14.78 18.01 15 17.79 15.01 17.51V15.5C15.01 15.22 14.78 15 14.51 15H11.5C11.22 15 11 15.23 11 15.5V17.51C11 17.79 11.23 18.01 11.5 18.01Z" fill="#83CBFF"/>
<path d="M21 15.5V17.51C21 17.79 20.78 18.01 20.5 18.01H17.49C17.21 18.01 16.99 17.78 16.99 17.51V15.5C16.99 15.22 17.22 15 17.49 15H20.5C20.78 15 21 15.23 21 15.5Z" fill="#83CBFF"/>
<path d="M15 19.5V21.51C15 21.79 14.78 22.01 14.5 22.01H11.49C11.21 22.01 10.99 21.78 10.99 21.51V19.5C10.99 19.22 11.22 19 11.49 19H14.5C14.78 19 15 19.23 15 19.5Z" fill="#83CBFF"/>
<path d="M21 19.5V21.51C21 21.79 20.78 22.01 20.5 22.01H17.49C17.21 22.01 16.99 21.78 16.99 21.51V19.5C16.99 19.22 17.22 19 17.49 19H20.5C20.78 19 21 19.23 21 19.5Z" fill="#83CBFF"/>
<path d="M6.39 21.01H4.61C4.27 21.01 4 20.74 4 20.4V15.62C4 15.28 4.27 15.01 4.61 15.01H6.39C6.73 15.01 7 15.28 7 15.62V20.4C7 20.74 6.73 21.01 6.39 21.01Z" fill="#83CBFF"/>
<path d="M27.39 21.01H25.61C25.27 21.01 25 20.74 25 20.4V15.62C25 15.28 25.27 15.01 25.61 15.01H27.39C27.73 15.01 28 15.28 28 15.62V20.4C28 20.74 27.73 21.01 27.39 21.01Z" fill="#83CBFF"/>
<path d="M8 2C7.45 2 7 2.45 7 3C7 3.56 7.45 4 8 4H24C24.55 4 25 3.55 25 3C25 2.45 24.55 2 24 2H8Z" fill="#F8312F"/>
<path d="M19.54 8.00999H12.46C12.21 8.00999 12 7.81 12 7.55V6.46C12 6.21 12.2 6 12.46 6H19.55C19.8 6 20.01 6.2 20.01 6.46V7.54C20 7.8 19.8 8.00999 19.54 8.00999Z" fill="#F8312F"/>
<path d="M20 9.47002C20 9.22002 19.8 9.01001 19.54 9.01001H12.46C12.21 9.01001 12 9.21002 12 9.47002V10.55C12 10.8 12.2 11.01 12.46 11.01H14.54C14.79 11.01 15 11.21 15 11.47V12.55C15 12.8 15.2 13.01 15.46 13.01H16.54C16.79 13.01 17 12.81 17 12.55V11.46C17 11.21 17.2 11 17.46 11H19.54C19.79 11 20 10.8 20 10.54V9.47002Z" fill="#F8312F"/>
<path fill-rule="evenodd" clip-rule="evenodd" d="M6.9 28.01H9.11C9.6 28.01 10 27.61 10.01 27.11V24.9C10.01 24.4 9.6 24 9.11 24H6.9C6.4 24 6 24.41 6 24.9V27.11C6 27.61 6.41 28.01 6.9 28.01ZM7.5 26.01H8.5C8.78 26.01 9 25.78 9 25.51C9 25.23 8.78 25.01 8.5 25.01H7.5C7.22 25.01 7 25.23 7 25.51C7 25.79 7.22 26.01 7.5 26.01Z" fill="#F8312F"/>
</svg>
